X:3
T:Killiecrankie
T:Harmony 2
C:arr Adam Blaine
R:March
M:4/4
L:1/8
K:D
[| {g}f>g |{ag}a3 A {GAG}A2 {g}B{d}c | {Gdc}d2 {e}G2 {gGd}G3 B  | {g}A2 d2 {g}A4 | {g}(A2 (A2) A2) {g}AB | 
{g}(c2 (c2) c2) {g}dA | {g}G2 B2 {g}d2 B2 | {g}A2 B2 {g}c3 B | {g}G2 A2 {gAG}A2 {g}de ||
{g}A2 d2 {g}A4 | {g}G2 B2 {g}G4 | {g}A2 d2 {g}A4 | {g}(A2 (A2) A2) {g}AB |  
{g}A4 {g}d2 B2 | {g}G2 {d}G2 {g}A2 B2 | {g}A2 B2 {g}c3 B | {g}G2 A2 {gAG}A4 |]


